X:233
T: Zu Straburg, zu Straburg (3-36), S. 113
N: P1008
O: Lothringen
S: PINCK, Louis: Verklingende Weisen, Bd3, Metz 1933]
R: Soldatenlied]
M: 2/4
L: 1/16
K: F
C2 | F4E2F2 | G4F2
G2 | A2F2c2A2 | G4z2
G2 | B2d2d2d2 | c2A2F2
c2 | c2c2BBG2 | F2A2c2
B2 | d2d2d2d2 | c2A2F2
c2 | c2c2BBG2 | F4z2

@@@ Tune index: 7783
